X:146
T:Reel 146
M:4/4
K:Amaj
L:1/8
ED|CDEC A,B,CA,|B,E,E,D, E,2CD|CDEC A,B,CD||EFGE DB,G,:||2DEDC D2|ED|CDEF GAGD|EAAG AcBA|GEEF GABA|BEDB, A,2ED|CDEF GFGA|GABG A2ED|CDEF GAGB|AFED A,2|
